X:4
T:Drops of Brandy, The
R:slip jig
H:Also played in A or in D.
D:Stockton's Wing.
Z:id:hn-slipjig-4
M:9/8
K:G
d2c BGB BGB|d2c BGB cBA|d2c BGB BGB|cBc A2B cBA:|
|:GBd gdB gdB|GBd gdB cBA|1 GBd gdB gdB|cBc A2B cBA:|2 GBd gba gdB|cBc A2B cBA||
<end>
<start>
